X: 7
T: The Foxhunter's
R: slip jig
M: 9/8
L: 1/8
K: Dmaj
|: FGF F2 D G2 E | FGF F2 D E2 D | FGF F2 D G2 B | AFD D2 F E2 D :||: B=cB BAG FGA | B2 E E2 F G2 B | ABc dcB ABc | d2 D D2 F E2 D :||: fgf f2 d g2 e | fgf f2 d e2 d | fgf f2 d g2 b | afd d2 f e2 d :||: gfe d=cB AGF | B2 E E2 F G2 B | ABc dcB ABc | d2 D D2 F E2 D :|


Tune 482	Setting 13389

